;FLAVOR:Marlin
;TIME:768
;Filament used: 0.369796m
;Layer height: 0.2
;MINX:132
;MINY:92.5
;MINZ:0.2
;MAXX:168
;MAXY:127.5
;MAXZ:13
;POSTPROCESSED
;Generated with Cura_SteamEngine 4.9.1
M82 ;absolute extrusion mode
M201 X500.00 Y500.00 Z100.00 E5000.00 ;Setup machine max acceleration
M203 X500.00 Y500.00 Z10.00 E50.00 ;Setup machine max feedrate
M204 P500.00 R1000.00 T500.00 ;Setup Print/Retract/Travel acceleration
M205 X8.00 Y8.00 Z0.40 E5.00 ;Setup Jerk
M220 S100 ;Reset Feedrate
M221 S100 ;Reset Flowrate

M140 S70 ; start preheating the bed
M104 S195 ; start preheating hotend
G28 ;Home
M190 S70 ; heat to Cura Bed setting
M109 S195 ; heat to Cura Hotend

G92 E0 ;Reset Extruder
G1 Z2.0 F3000 ;Move Z Axis up
G1 X10.1 Y20 Z0.28 F5000.0 ;Move to start position
G1 X10.1 Y200.0 Z0.28 F1500.0 E15 ;Draw the first line
G1 X10.4 Y200.0 Z0.28 F5000.0 ;Move to side a little
G1 X10.4 Y20 Z0.28 F1500.0 E30 ;Draw the second line
G92 E0 ;Reset Extruder
G1 Z2.0 F3000 ;Move Z Axis up
G92 E0
G92 E0
G1 F2100 E-0.8
;LAYER_COUNT:65
;LAYER:0
M107
G0 F7500 X133.996 Y97.203 Z0.2
;TYPE:SKIRT
G1 F2100 E0
G1 F1500 X134.566 Y96.458 E0.0312
G1 X135.198 Y95.764 E0.06242
G1 X135.886 Y95.127 E0.0936
G1 X136.626 Y94.551 E0.12479
G1 X137.412 Y94.039 E0.15599
G1 X138.239 Y93.597 E0.18718
G1 X139.101 Y93.227 E0.21838
G1 X139.991 Y92.931 E0.24958
G1 X140.903 Y92.713 E0.28077
G1 X141.83 Y92.572 E0.31195
G1 X142.701 Y92.513 E0.34099
G1 X143.022 Y92.504 E0.35167
G1 X143.33 Y92.5 E0.36191
G1 X156.293 Y92.5 E0.79306
G1 X157.149 Y92.511 E0.82154
G1 X158.085 Y92.565 E0.85272
G1 X159.013 Y92.697 E0.8839
G1 X159.927 Y92.909 E0.9151
G1 X160.819 Y93.198 E0.94629
G1 X161.684 Y93.561 E0.97749
G1 X162.514 Y93.997 E1.00867
G1 X163.305 Y94.502 E1.03989
G1 X164.049 Y95.073 E1.07108
G1 X164.742 Y95.705 E1.10228
G1 X165.379 Y96.393 E1.13346
G1 X165.954 Y97.134 E1.16466
G1 X166.465 Y97.92 E1.19584
G1 X166.907 Y98.748 E1.22705
G1 X167.276 Y99.61 E1.25824
G1 X167.571 Y100.5 E1.28943
G1 X167.789 Y101.412 E1.32061
G1 X167.929 Y102.34 E1.35183
G1 X167.987 Y103.201 E1.38053
G1 X167.996 Y103.521 E1.39118
G1 X168 Y103.83 E1.40146
G1 X167.999 Y115.9 E1.80291
G1 X167.99 Y116.627 E1.82709
G1 X167.939 Y117.564 E1.8583
G1 X167.807 Y118.492 E1.88948
G1 X167.598 Y119.406 E1.92066
G1 X167.311 Y120.299 E1.95186
G1 X166.949 Y121.165 E1.98308
G1 X166.515 Y121.996 E2.01426
G1 X166.011 Y122.787 E2.04545
G1 X165.442 Y123.532 E2.07663
G1 X164.811 Y124.227 E2.10785
G1 X164.124 Y124.865 E2.13904
G1 X163.385 Y125.442 E2.17022
G1 X162.599 Y125.954 E2.20142
G1 X161.773 Y126.397 E2.2326
G1 X160.911 Y126.769 E2.26382
G1 X160.022 Y127.065 E2.29499
G1 X159.11 Y127.285 E2.32619
G1 X158.183 Y127.426 E2.35738
G1 X157.299 Y127.487 E2.38685
G1 X156.978 Y127.496 E2.39753
G1 X156.67 Y127.5 E2.40777
G1 X143.565 Y127.499 E2.84365
G1 X142.867 Y127.49 E2.86687
G1 X141.931 Y127.438 E2.89804
G1 X141.002 Y127.306 E2.92925
G1 X140.088 Y127.096 E2.96045
G1 X139.195 Y126.809 E2.99164
G1 X138.33 Y126.446 E3.02284
G1 X137.499 Y126.012 E3.05403
G1 X136.708 Y125.508 E3.08522
G1 X135.963 Y124.938 E3.11642
G1 X135.269 Y124.307 E3.14762
G1 X134.632 Y123.62 E3.17878
G1 X134.055 Y122.88 E3.20999
G1 X133.543 Y122.094 E3.24119
G1 X133.1 Y121.267 E3.27239
G1 X132.729 Y120.406 E3.30357
G1 X132.433 Y119.516 E3.33477
G1 X132.214 Y118.604 E3.36597
G1 X132.073 Y117.677 E3.39715
G1 X132.013 Y116.788 E3.42679
G1 X132.004 Y116.455 E3.43787
G1 X132 Y116.158 E3.44775
G1 X132.001 Y104.025 E3.85129
G1 X132.01 Y103.36 E3.87341
G1 X132.063 Y102.424 E3.90459
G1 X132.195 Y101.495 E3.9358
G1 X132.406 Y100.581 E3.967
G1 X132.694 Y99.689 E3.99818
G1 X133.057 Y98.824 E4.02938
G1 X133.492 Y97.993 E4.06058
G1 X133.996 Y97.203 E4.09174
G0 F7500 X134.392 Y97.335
G1 F1500 X134.961 Y96.611 E4.12237
G1 X135.589 Y95.939 E4.15296
G1 X136.274 Y95.323 E4.1836
G1 X137.01 Y94.77 E4.21422
G1 X137.791 Y94.282 E4.24485
G1 X138.611 Y93.864 E4.27546
G1 X139.465 Y93.519 E4.3061
G1 X140.345 Y93.249 E4.33671
G1 X141.245 Y93.057 E4.36732
G1 X142.159 Y92.943 E4.39796
G1 X142.712 Y92.913 E4.41638
G1 X143.033 Y92.904 E4.42706
G1 X143.33 Y92.9 E4.43694
G1 X156.293 Y92.9 E4.86809
G1 X157.143 Y92.911 E4.89636
G1 X158.062 Y92.964 E4.92698
G1 X158.973 Y93.097 E4.9576
G1 X159.869 Y93.308 E4.98822
G1 X160.743 Y93.596 E5.01882
G1 X161.59 Y93.959 E5.04947
G1 X162.401 Y94.394 E5.08008
G1 X163.171 Y94.898 E5.11069
G1 X163.895 Y95.467 E5.14132
G1 X164.567 Y96.097 E5.17195
G1 X165.182 Y96.782 E5.20257
G1 X165.735 Y97.518 E5.23319
G1 X166.222 Y98.299 E5.2638
G1 X166.639 Y99.12 E5.29443
G1 X166.984 Y99.974 E5.32506
G1 X167.253 Y100.854 E5.35567
G1 X167.445 Y101.755 E5.38631
G1 X167.558 Y102.668 E5.41691
G1 X167.587 Y103.212 E5.43503
G1 X167.596 Y103.532 E5.44568
G1 X167.6 Y103.83 E5.45559
G1 X167.599 Y115.895 E5.85687
G1 X167.59 Y116.622 E5.88105
G1 X167.539 Y117.541 E5.91167
G1 X167.408 Y118.453 E5.94231
G1 X167.198 Y119.349 E5.97292
G1 X166.912 Y120.224 E6.00354
G1 X166.551 Y121.071 E6.03416
G1 X166.117 Y121.883 E6.06478
G1 X165.615 Y122.655 E6.09541
G1 X165.047 Y123.38 E6.12604
G1 X164.419 Y124.053 E6.15666
G1 X163.735 Y124.669 E6.18728
G1 X163 Y125.223 E6.21789
G1 X162.22 Y125.712 E6.24851
G1 X161.4 Y126.131 E6.27914
G1 X160.547 Y126.477 E6.30975
G1 X159.667 Y126.748 E6.34038
G1 X158.767 Y126.941 E6.37099
G1 X157.853 Y127.056 E6.40163
G1 X157.288 Y127.087 E6.42045
G1 X156.967 Y127.096 E6.43113
G1 X156.67 Y127.1 E6.44101
G1 X143.57 Y127.099 E6.87672
G1 X142.872 Y127.09 E6.89994
G1 X141.953 Y127.038 E6.93055
G1 X141.042 Y126.907 E6.96116
G1 X140.146 Y126.697 E6.99177
G1 X139.271 Y126.41 E7.0224
G1 X138.424 Y126.048 E7.05304
G1 X137.612 Y125.614 E7.08366
G1 X136.841 Y125.112 E7.11426
G1 X136.116 Y124.544 E7.14489
G1 X135.443 Y123.915 E7.17553
G1 X134.828 Y123.231 E7.20612
G1 X134.274 Y122.496 E7.23674
G1 X133.786 Y121.715 E7.26737
G1 X133.367 Y120.895 E7.29799
G1 X133.021 Y120.042 E7.32861
G1 X132.751 Y119.162 E7.35923
G1 X132.558 Y118.261 E7.38987
G1 X132.444 Y117.348 E7.42048
G1 X132.413 Y116.777 E7.4395
G1 X132.404 Y116.444 E7.45058
G1 X132.4 Y116.158 E7.46009
G1 X132.401 Y104.031 E7.86343
G1 X132.41 Y103.366 E7.88555
G1 X132.462 Y102.446 E7.9162
G1 X132.594 Y101.535 E7.94682
G1 X132.805 Y100.639 E7.97744
G1 X133.092 Y99.764 E8.00806
G1 X133.455 Y98.918 E8.03868
G1 X133.889 Y98.106 E8.0693
G1 X134.392 Y97.335 E8.09992
G0 F7500 X134.788 Y97.471
G1 F1500 X135.355 Y96.767 E8.12999
G1 X135.981 Y96.117 E8.16
G1 X136.662 Y95.524 E8.19004
G1 X137.394 Y94.994 E8.2201
G1 X138.169 Y94.531 E8.25012
G1 X138.982 Y94.138 E8.28016
G1 X139.827 Y93.818 E8.31021
G1 X140.696 Y93.575 E8.34022
G1 X141.584 Y93.409 E8.37027
G1 X142.723 Y93.313 E8.40828
G1 X143.044 Y93.304 E8.41896
G1 X143.33 Y93.3 E8.42848
G1 X156.293 Y93.3 E8.85963
G1 X157.137 Y93.311 E8.8877
G1 X158.039 Y93.364 E8.91776
G1 X158.932 Y93.496 E8.94778
G1 X159.81 Y93.707 E8.97781
G1 X160.666 Y93.995 E9.00785
G1 X161.493 Y94.357 E9.03788
G1 X162.285 Y94.792 E9.06793
G1 X163.036 Y95.294 E9.09798
G1 X163.739 Y95.861 E9.12802
G1 X164.389 Y96.488 E9.15805
G1 X164.981 Y97.17 E9.18809
G1 X165.511 Y97.901 E9.21812
G1 X165.973 Y98.677 E9.24816
G1 X166.366 Y99.49 E9.27819
G1 X166.684 Y100.335 E9.30822
G1 X166.927 Y101.205 E9.33827
G1 X167.092 Y102.093 E9.36831
G1 X167.187 Y103.223 E9.40602
G1 X167.196 Y103.543 E9.41667
G1 X167.2 Y103.83 E9.42622
G1 X167.199 Y115.89 E9.82734
G1 X167.19 Y116.617 E9.85152
G1 X167.139 Y117.519 E9.88157
G1 X167.008 Y118.413 E9.91162
G1 X166.799 Y119.291 E9.94164
G1 X166.513 Y120.148 E9.97169
G1 X166.152 Y120.976 E10.00173
G1 X165.72 Y121.768 E10.03173
G1 X165.219 Y122.52 E10.06179
G1 X164.653 Y123.224 E10.09183
G1 X164.028 Y123.875 E10.12185
G1 X163.347 Y124.469 E10.1519
G1 X162.616 Y125 E10.18196
G1 X161.842 Y125.464 E10.21197
G1 X161.029 Y125.858 E10.24202
G1 X160.185 Y126.178 E10.27204
G1 X159.315 Y126.423 E10.3021
G1 X158.428 Y126.589 E10.33212
G1 X157.277 Y126.687 E10.37054
G1 X156.956 Y126.696 E10.38122
G1 X156.67 Y126.7 E10.39073
G1 X143.575 Y126.699 E10.82627
G1 X142.877 Y126.69 E10.84949
G1 X141.976 Y126.639 E10.87951
G1 X141.082 Y126.507 E10.90956
G1 X140.204 Y126.298 E10.93958
G1 X139.347 Y126.011 E10.96964
G1 X138.52 Y125.65 E10.99965
G1 X137.727 Y125.217 E11.0297
G1 X136.976 Y124.716 E11.05973
G1 X136.272 Y124.15 E11.08977
G1 X135.621 Y123.524 E11.11981
G1 X135.028 Y122.843 E11.14985
G1 X134.498 Y122.112 E11.17988
G1 X134.034 Y121.337 E11.20992
G1 X133.64 Y120.524 E11.23997
G1 X133.32 Y119.68 E11.26999
G1 X133.076 Y118.81 E11.30004
G1 X132.91 Y117.922 E11.33009
G1 X132.813 Y116.767 E11.36864
G1 X132.804 Y116.434 E11.37972
G1 X132.8 Y116.158 E11.3889
G1 X132.801 Y104.036 E11.79208
G1 X132.81 Y103.371 E11.8142
G1 X132.862 Y102.469 E11.84425
G1 X132.994 Y101.576 E11.87428
G1 X133.204 Y100.698 E11.9043
G1 X133.491 Y99.841 E11.93436
G1 X133.853 Y99.014 E11.96439
G1 X134.286 Y98.222 E11.99441
G1 X134.788 Y97.471 E12.02446
G1 F2100 E11.22446
;MESH:Grand Bojo.stl
G0 F7500 X142.335 Y103.914
G0 X143.414 Y103.914
G0 X156.218 Y104.282
G0 X156.4 Y115.9
;TYPE:WALL-INNER
G1 F2100 E12.02446
G1 F1500 X143.6 Y115.9 E12.45018
G1 X143.6 Y104.1 E12.84265
G1 X156.4 Y104.1 E13.26838
G1 X156.4 Y115.9 E13.66085
G0 F7500 X156.8 Y116.3
;TYPE:WALL-OUTER
G1 F1500 X143.2 Y116.3 E14.11319
G1 X143.2 Y103.7 E14.53227
G1 X156.8 Y103.7 E14.98461
G1 X156.8 Y116.3 E15.40368
G0 F7500 X156.53 Y116.03
G0 X156.29 Y115.51
G0 X156.01 Y115.51
;TYPE:SKIN
G1 F1500 X143.99 Y115.51 E15.80347
G1 X143.99 Y104.49 E16.17
G1 X156.01 Y104.49 E16.56979
G1 X156.01 Y115.51 E16.93631
G0 F7500 X156.29 Y115.51
G0 X156.29 Y104.937
G0 X155.849 Y104.937
G1 F1500 X155.562 Y104.65 E16.94981
G0 F7500 X154.996 Y104.65
G1 F1500 X155.849 Y105.503 E16.98993
G0 F7500 X155.849 Y106.068
G1 F1500 X154.43 Y104.65 E17.05666
G0 F7500 X153.865 Y104.65
G1 F1500 X155.849 Y106.634 E17.14998
G0 F7500 X155.849 Y107.2
G1 F1500 X153.299 Y104.65 E17.26992
G0 F7500 X152.733 Y104.65
G1 F1500 X155.849 Y107.765 E17.41646
G0 F7500 X155.849 Y108.331
G1 F1500 X152.167 Y104.65 E17.58963
G0 F7500 X151.602 Y104.65
G1 F1500 X155.849 Y108.897 E17.7894
G0 F7500 X155.849 Y109.462
G1 F1500 X151.036 Y104.65 E18.01576
G0 F7500 X150.47 Y104.65
G1 F1500 X155.849 Y110.028 E18.26875
G0 F7500 X155.849 Y110.594
G1 F1500 X149.905 Y104.65 E18.54834
G0 F7500 X149.339 Y104.65
G1 F1500 X155.849 Y111.16 E18.85455
G0 F7500 X155.849 Y111.725
G1 F1500 X148.773 Y104.65 E19.18736
G0 F7500 X148.208 Y104.65
G1 F1500 X155.849 Y112.291 E19.54677
G0 F7500 X155.849 Y112.857
G1 F1500 X147.642 Y104.65 E19.9328
G0 F7500 X147.076 Y104.65
G1 F1500 X155.849 Y113.422 E20.34543
G0 F7500 X155.849 Y113.988
G1 F1500 X146.511 Y104.65 E20.78466
G0 F7500 X145.945 Y104.65
G1 F1500 X155.849 Y114.554 E21.25052
G0 F7500 X155.849 Y115.119
G1 F1500 X145.379 Y104.65 E21.74297
G0 F7500 X144.814 Y104.65
G1 F1500 X155.513 Y115.35 E22.24624
G0 F7500 X154.948 Y115.35
G1 F1500 X144.248 Y104.65 E22.74954
G0 F7500 X144.149 Y105.117
G1 F1500 X154.382 Y115.35 E23.23086
G0 F7500 X153.816 Y115.35
G1 F1500 X144.149 Y105.682 E23.68559
G0 F7500 X144.149 Y106.248
G1 F1500 X153.251 Y115.35 E24.11372
G0 F7500 X152.685 Y115.35
G1 F1500 X144.149 Y106.814 E24.51523
G0 F7500 X144.149 Y107.379
G1 F1500 X152.119 Y115.35 E24.89014
G0 F7500 X151.554 Y115.35
G1 F1500 X144.149 Y107.945 E25.23845
G0 F7500 X144.149 Y108.511
G1 F1500 X150.988 Y115.35 E25.56013
G0 F7500 X150.422 Y115.35
G1 F1500 X144.149 Y109.076 E25.85522
G0 F7500 X144.149 Y109.642
G1 F1500 X149.857 Y115.35 E26.12371
G0 F7500 X149.291 Y115.35
G1 F1500 X144.149 Y110.208 E26.36557
G0 F7500 X144.149 Y110.773
G1 F1500 X148.725 Y115.35 E26.58084
G0 F7500 X148.16 Y115.35
G1 F1500 X144.149 Y111.339 E26.7695
G0 F7500 X144.149 Y111.905
G1 F1500 X147.594 Y115.35 E26.93154
G0 F7500 X147.028 Y115.35
G1 F1500 X144.149 Y112.47 E27.06699
G0 F7500 X144.149 Y113.036
G1 F1500 X146.463 Y115.35 E27.17583
G0 F7500 X145.897 Y115.35
G1 F1500 X144.149 Y113.602 E27.25805
G0 F7500 X144.149 Y114.168
G1 F1500 X145.331 Y115.35 E27.31365
G0 F7500 X144.765 Y115.35
G1 F1500 X144.149 Y114.733 E27.34265
M104 S195
G0 F7500 X143.8 Y114.733
;MESH:NONMESH
G0 F300 X143.8 Y114.733 Z0.4
G0 F7500 X143.71 Y114.733
G0 X143.782 Y115.718
G0 X156.4 Y115.9
;TIME_ELAPSED:42.591550
;LAYER:1
M106 S85
;TYPE:WALL-INNER
;MESH:Grand Bojo.stl
G1 F3750 X143.6 Y115.9 E27.76838
G1 X143.6 Y104.1 E28.16084
G1 X156.4 Y104.1 E28.58657
G1 X156.4 Y115.9 E28.97904
G0 F11250 X156.8 Y116.3
;TYPE:WALL-OUTER
G1 F3750 X143.2 Y116.3 E29.43138
G1 X143.2 Y103.7 E29.85046
G1 X156.8 Y103.7 E30.3028
G1 X156.8 Y116.3 E30.72188
G0 F11250 X156.53 Y116.03
G0 X156.29 Y115.51
G0 X156.01 Y115.51
;TYPE:SKIN
G1 F2250 X143.99 Y115.51 E31.12166
G1 X143.99 Y104.49 E31.48819
G1 X156.01 Y104.49 E31.88798
G1 X156.01 Y115.51 E32.2545
G0 F11250 X155.849 Y115.114
G1 F2250 X155.612 Y115.35 E32.26563
G0 F11250 X155.047 Y115.35
G1 F2250 X155.849 Y114.548 E32.30335
G0 F11250 X155.849 Y113.982
G1 F2250 X154.481 Y115.35 E32.3677
G0 F11250 X153.915 Y115.35
G1 F2250 X155.849 Y113.417 E32.45864
G0 F11250 X155.849 Y112.851
G1 F2250 X153.35 Y115.35 E32.57619
G0 F11250 X152.784 Y115.35
G1 F2250 X155.849 Y112.285 E32.72036
G0 F11250 X155.849 Y111.72
G1 F2250 X152.218 Y115.35 E32.89112
G0 F11250 X151.653 Y115.35
G1 F2250 X155.849 Y111.154 E33.08849
G0 F11250 X155.849 Y110.588
G1 F2250 X151.087 Y115.35 E33.31248
G0 F11250 X150.521 Y115.35
G1 F2250 X155.849 Y110.022 E33.56309
G0 F11250 X155.849 Y109.457
G1 F2250 X149.956 Y115.35 E33.84028
G0 F11250 X149.39 Y115.35
G1 F2250 X155.849 Y108.891 E34.14409
G0 F11250 X155.849 Y108.325
G1 F2250 X148.824 Y115.35 E34.47453
G0 F11250 X148.259 Y115.35
G1 F2250 X155.849 Y107.76 E34.83154
G0 F11250 X155.849 Y107.194
G1 F2250 X147.693 Y115.35 E35.21517
G0 F11250 X147.127 Y115.35
G1 F2250 X155.849 Y106.628 E35.62543
G0 F11250 X155.849 Y106.063
G1 F2250 X146.562 Y115.35 E36.06226
G0 F11250 X145.996 Y115.35
G1 F2250 X155.849 Y105.497 E36.52571
G0 F11250 X155.849 Y104.931
G1 F2250 X145.43 Y115.35 E37.01579
G0 F11250 X144.864 Y115.35
G1 F2250 X155.564 Y104.65 E37.51909
G0 F11250 X154.999 Y104.65
G1 F2250 X144.299 Y115.35 E38.02238
G0 F11250 X144.149 Y114.934
G1 F2250 X154.433 Y104.65 E38.50611
G0 F11250 X153.867 Y104.65
G1 F2250 X144.149 Y114.368 E38.96322
G0 F11250 X144.149 Y113.803
G1 F2250 X153.302 Y104.65 E39.39374
G0 F11250 X152.736 Y104.65
G1 F2250 X144.149 Y113.237 E39.79765
G0 F11250 X144.149 Y112.671
G1 F2250 X152.17 Y104.65 E40.17493
G0 F11250 X151.605 Y104.65
G1 F2250 X144.149 Y112.106 E40.52564
G0 F11250 X144.149 Y111.54
G1 F2250 X151.039 Y104.65 E40.84973
G0 F11250 X150.473 Y104.65
G1 F2250 X144.149 Y110.974 E41.14719
G0 F11250 X144.149 Y110.409
G1 F2250 X149.908 Y104.65 E41.41807
G0 F11250 X149.342 Y104.65
G1 F2250 X144.149 Y109.843 E41.66234
G0 F11250 X144.149 Y109.277
G1 F2250 X148.776 Y104.65 E41.87998
G0 F11250 X148.21 Y104.65
G1 F2250 X144.149 Y108.712 E42.07102
G0 F11250 X144.149 Y108.146
G1 F2250 X147.645 Y104.65 E42.23546
G0 F11250 X147.079 Y104.65
G1 F2250 X144.149 Y107.58 E42.37328
G0 F11250 X144.149 Y107.014
G1 F2250 X146.513 Y104.65 E42.48447
G0 F11250 X145.948 Y104.65
G1 F2250 X144.149 Y106.449 E42.56909
G0 F11250 X144.149 Y105.883
G1 F2250 X145.382 Y104.65 E42.62709
G0 F11250 X144.816 Y104.65
G1 F2250 X144.149 Y105.317 E42.65846
G0 F11250 X144.149 Y104.752
G1 F2250 X144.251 Y104.65 E42.66326
G0 F11250 X144.251 Y104.3
;MESH:NONMESH
G0 F300 X144.251 Y104.3 Z0.6
G0 F11250 X144.251 Y104.21
G0 X156.218 Y104.282
G0 X156.4 Y115.9
;TIME_ELAPSED:59.619831
;LAYER:2
M106 S170
;TYPE:WALL-INNER
;MESH:Grand Bojo.stl
G1 F5020.8 X143.6 Y115.9 E43.08899
G1 X143.6 Y104.1 E43.48146
G1 X156.4 Y104.1 E43.90719
G1 X156.4 Y115.9 E44.29966
G0 F15000 X156.8 Y116.3
;TYPE:WALL-OUTER
G1 F5020.8 X143.2 Y116.3 E44.75199
G1 X143.2 Y103.7 E45.17107
G1 X156.8 Y103.7 E45.62341
G1 X156.8 Y116.3 E46.04249
G0 F15000 X156.53 Y116.03
G0 X156.29 Y115.51
G0 X156.01 Y115.51
;TYPE:SKIN
G1 F2510.4 X143.99 Y115.51 E46.44227
G1 X143.99 Y104.49 E46.8088
G1 X156.01 Y104.49 E47.20859
G1 X156.01 Y115.51 E47.57512
G0 F15000 X156.29 Y115.51
G0 X156.29 Y104.937
G0 X155.849 Y104.937
G1 F2510.4 X155.562 Y104.65 E47.58861
G0 F15000 X154.996 Y104.65
G1 F2510.4 X155.849 Y105.503 E47.62874
